X: 30
T: JIG: Breeches Mary
C: C: Trad.; S: Denis Murphy & Julia Clifford
C: Set Leaders: Anton, Mars
Z: Anton Zille ed.; ceolachan at The Session
N: https://thesession.org/members/26966/sets/94456
R: Jig
M: 6/8
L: 1/8
Q: 3/8=116
K: Gmaj
|:eAA BAB|GBd dBd|egg dgg|BAB GBd|
eAA BAB|GBd dBd|e/f/ge dBA|1 BGG G2g:|2 BGG G2d||
|:e2a bag|egg ged|egg dgg|BAB GBd|
eaa bag|egg ged|e/f/ge dBA|1 BGG G2d:|2 BGG G2g||

